assets/images/footer-location.svg

<svg width="27" height="27" viewBox="0 0 27 27" fill="none" xmlns="http://www.w3.org/2000/svg">
<path fill-rule="evenodd" clip-rule="evenodd" d="M0 13.5C0 20.9558 6.04416 27 13.5 27C20.9558 27 27 20.9558 27 13.5C27 6.04416 20.9558 0 13.5 0C6.04416 0 0 6.04416 0 13.5ZM19.9935 12.0223C19.9935 15.806 15.0172 21.4497 13.7616 21.4497C12.3279 21.4497 7.35156 15.806 7.35156 12.0223C7.35156 8.40033 10.1815 5.39844 13.7616 5.39844C17.1634 5.39844 19.9935 8.40033 19.9935 12.0223Z" fill="white"/>
<path d="M10.6525 9.3339C10.1328 9.99594 9.82788 10.837 9.82788 11.7677C9.82788 13.7625 11.5504 15.4676 13.7854 15.4676C15.8003 15.4676 17.523 13.7625 17.523 11.7677C17.523 9.55538 15.8003 7.8501 13.7854 7.8501C13.4313 7.8501 13.0901 7.8929 12.7665 7.97375C13.3014 8.20419 13.6754 8.73204 13.6754 9.34646C13.6754 10.1728 12.9986 10.8427 12.1639 10.8427C11.3291 10.8427 10.6524 10.1728 10.6524 9.34646C10.6524 9.34227 10.6524 9.33808 10.6525 9.3339Z" fill="white"/>
</svg>

<svg xmlns="http://www.w3.org/2000/svg" width="27" height="27" fill="none"><path fill="#fff" fill-rule="evenodd" d="M0 13.5C0 20.956 6.044 27 13.5 27S27 20.956 27 13.5 20.956 0 13.5 0 0 6.044 0 13.5Zm19.994-1.478c0 3.784-4.977 9.428-6.232 9.428-1.434 0-6.41-5.644-6.41-9.428 0-3.622 2.83-6.624 6.41-6.624 3.401 0 6.232 3.002 6.232 6.624Z" clip-rule="evenodd"/><path fill="#fff" d="M10.652 9.334a3.911 3.911 0 0 0-.824 2.434c0 1.994 1.722 3.7 3.957 3.7 2.015 0 3.738-1.706 3.738-3.7 0-2.213-1.723-3.918-3.738-3.918-.354 0-.695.043-1.018.124.534.23.908.758.908 1.372 0 .827-.676 1.497-1.511 1.497-.835 0-1.512-.67-1.512-1.497v-.012Z"/></svg>
